X: 2
T: Cleaning The Hen House
Z: robinlew
S: https://thesession.org/tunes/152#setting41447
R: reel
M: 4/4
L: 1/8
K: Dmaj
AF~F2 dF~F2|BAFB AF~F2|AF~F2 dedB|AFDF E2FG|
AF~F2 dF~F2|BAFB AF~F2|BABc dfef|dBAF E3A||
BABc dfef|d2ef dBBA|BABc dfef|dBAF E3A|
BABc dfef|d2ef df~f2|bfaf egfe|dBAF E2FG||

%-------------------- TUNE SEPARATOR --------------------%

